public/assets/img/logo.svg

<svg width="122" height="40" viewBox="0 0 122 40" fill="none" xmlns="http://www.w3.org/2000/svg">
<path d="M46.25 10.105C48.2333 10.105 49.7383 10.525 50.765 11.365C51.7917 12.205 52.305 13.4533 52.305 15.11C52.305 16.3467 51.8617 17.3967 50.975 18.26C50.1117 19.1 48.945 19.6483 47.475 19.905C48.5717 19.905 49.575 20.1383 50.485 20.605C51.395 21.0717 52.1183 21.725 52.655 22.565C53.1917 23.3817 53.46 24.3033 53.46 25.33C53.46 29.11 50.8817 31 45.725 31H35.365V29.705L37.045 29.775C37.4183 29.775 37.605 29.5183 37.605 29.005V12.03C37.605 11.8667 37.5467 11.715 37.43 11.575C37.3367 11.4117 37.1967 11.33 37.01 11.33L35.365 11.4V10.105H46.25ZM42.855 11.33C42.6217 11.33 42.4817 11.47 42.435 11.75V19.485H44.255C45.3283 19.485 46.1217 19.1583 46.635 18.505C47.1483 17.8283 47.405 16.755 47.405 15.285C47.405 12.6483 46.3317 11.33 44.185 11.33H42.855ZM42.435 20.71V29.285C42.435 29.5883 42.5983 29.74 42.925 29.74H44.64C45.83 29.74 46.7633 29.3667 47.44 28.62C48.14 27.8733 48.49 26.7533 48.49 25.26C48.49 23.6733 48.21 22.5183 47.65 21.795C47.09 21.0717 46.2383 20.71 45.095 20.71H42.435ZM58.8519 8.005C59.6452 8.005 60.2869 8.20333 60.7769 8.6C61.2902 8.99667 61.5469 9.52167 61.5469 10.175C61.5469 10.8517 61.2902 11.3883 60.7769 11.785C60.2869 12.1817 59.6452 12.38 58.8519 12.38C58.0586 12.38 57.4052 12.1817 56.8919 11.785C56.4019 11.3883 56.1569 10.8517 56.1569 10.175C56.1569 9.52167 56.4019 8.99667 56.8919 8.6C57.4052 8.20333 58.0586 8.005 58.8519 8.005ZM61.2319 29.215C61.2319 29.6817 61.3836 29.9033 61.6869 29.88L62.8419 29.81V31H55.0369V29.81L56.1919 29.88H56.2619C56.5186 29.88 56.6469 29.6583 56.6469 29.215V17.91C56.6469 17.5133 56.5069 17.28 56.2269 17.21L55.0719 17.28V16.125H61.2319V29.215ZM64.2313 23.545C64.2313 21.025 64.8846 19.1 66.1913 17.77C67.4979 16.44 69.4579 15.775 72.0713 15.775C74.7079 15.775 76.6679 16.44 77.9513 17.77C79.2346 19.1 79.8763 21.025 79.8763 23.545C79.8763 28.7483 77.2746 31.35 72.0713 31.35C69.4579 31.35 67.4979 30.685 66.1913 29.355C64.8846 28.025 64.2313 26.0883 64.2313 23.545ZM69.1313 23.615C69.1313 25.9717 69.3529 27.6517 69.7963 28.655C70.2629 29.635 71.0213 30.125 72.0713 30.125C73.1213 30.125 73.8679 29.635 74.3113 28.655C74.7546 27.675 74.9763 25.995 74.9763 23.615C74.9763 21.1883 74.7546 19.4733 74.3113 18.47C73.8679 17.4667 73.1213 16.965 72.0713 16.965C71.0213 16.965 70.2629 17.4667 69.7963 18.47C69.3529 19.4733 69.1313 21.1883 69.1313 23.615ZM99.0669 29.81V31H91.0869V29.81L92.4169 29.88C92.7202 29.81 92.8719 29.5883 92.8719 29.215V20.745C92.8719 19.5317 92.7669 18.68 92.5569 18.19C92.3702 17.6767 91.9269 17.42 91.2269 17.42C90.6202 17.42 90.0252 17.6767 89.4419 18.19C88.8819 18.7033 88.4152 19.4617 88.0419 20.465C87.6686 21.4683 87.4819 22.67 87.4819 24.07V29.215C87.4819 29.6583 87.6336 29.88 87.9369 29.88L89.3019 29.81V31H81.2869V29.81L82.4419 29.88C82.7452 29.81 82.8969 29.5883 82.8969 29.215V17.91C82.8969 17.5133 82.7452 17.28 82.4419 17.21L81.2869 17.28V16.125H87.6569C87.5402 16.475 87.4819 16.8833 87.4819 17.35V19.31C87.9952 18.19 88.7069 17.3267 89.6169 16.72C90.5502 16.09 91.6469 15.775 92.9069 15.775C94.4936 15.775 95.6486 16.1833 96.3719 17C97.0952 17.7933 97.4569 19.0533 97.4569 20.78V29.215C97.4569 29.6583 97.6086 29.88 97.9119 29.88L99.0669 29.81ZM108.099 15.775C110.222 15.775 111.914 16.3583 113.174 17.525C114.457 18.6683 115.111 20.3017 115.134 22.425V23.72H105.054C105.054 25.7267 105.416 27.255 106.139 28.305C106.886 29.355 107.994 29.8917 109.464 29.915C110.561 29.915 111.506 29.6467 112.299 29.11C113.092 28.55 113.676 27.8733 114.049 27.08L114.994 27.745C114.457 28.8883 113.594 29.775 112.404 30.405C111.237 31.035 109.826 31.35 108.169 31.35C105.392 31.35 103.362 30.72 102.079 29.46C100.796 28.2 100.154 26.2517 100.154 23.615C100.154 20.9317 100.819 18.96 102.149 17.7C103.479 16.4167 105.462 15.775 108.099 15.775ZM107.994 16.965C106.991 16.965 106.256 17.49 105.789 18.54C105.322 19.5667 105.089 20.9083 105.089 22.565H109.744C109.977 22.565 110.152 22.4833 110.269 22.32C110.386 22.1567 110.444 21.8533 110.444 21.41C110.444 19.8933 110.246 18.7733 109.849 18.05C109.476 17.3267 108.857 16.965 107.994 16.965Z" fill="#18333B"/>
<path d="M7.19639 8C7.70071 8.1221 8.22795 8.19078 8.71699 8.37392C10.4592 9.03019 11.7123 10.1901 12.2472 12.0139C12.3542 12.3879 12.4077 12.7923 12.4077 13.1815C12.423 15.2113 12.4153 17.2336 12.4153 19.2634C12.4153 19.3016 12.4077 19.3397 12.4077 19.4084C12.316 19.4084 12.2319 19.4084 12.1479 19.4084C10.2452 19.4084 8.34257 19.3932 6.43991 19.4161C4.63659 19.439 3.24589 18.653 2.19905 17.2565C1.27447 16.0279 0.877123 14.6466 1.02995 13.1128C1.28211 10.5717 3.2841 8.46549 5.81334 8.08394C5.95852 8.06105 6.1037 8.03052 6.24888 8C6.56981 8 6.8831 8 7.19639 8Z" fill="#FE5B2C"/>
<path d="M24 26.223C23.8853 26.6961 23.8089 27.1921 23.6408 27.65C22.8156 29.9164 20.378 31.3205 17.994 30.9084C16.29 30.6108 14.9757 29.7256 14.1275 28.207C13.776 27.5737 13.6309 26.8792 13.6309 26.1619C13.6309 24.3991 13.6309 22.6364 13.6309 20.866C13.6309 20.6828 13.6767 20.6294 13.8677 20.6294C15.6329 20.637 17.398 20.6218 19.1707 20.637C20.997 20.6447 22.296 21.5604 23.2282 23.0637C23.6332 23.7123 23.8701 24.4297 23.9541 25.1851C23.9618 25.2386 23.9847 25.2843 23.9923 25.3301C24 25.6201 24 25.9177 24 26.223Z" fill="#FE5B2C"/>
<path d="M12.4156 20.6371C12.4156 20.7363 12.4156 20.8202 12.4156 20.9041C12.4156 22.5982 12.4003 24.3 12.4232 25.9941C12.4461 27.856 11.5903 29.222 10.0468 30.1606C8.3963 31.1679 6.65411 31.2748 4.91192 30.3972C3.35311 29.6112 2.39032 28.3292 2.1458 26.6045C1.83251 24.4144 2.6272 22.644 4.43816 21.3544C5.14879 20.8507 5.95876 20.6218 6.82221 20.6218C8.64082 20.6142 10.4594 20.6218 12.278 20.6218C12.3086 20.6294 12.3392 20.6371 12.4156 20.6371Z" fill="#FE5B2C"/>
<path d="M13.6382 19.3932C13.6382 19.2864 13.6382 19.2024 13.6382 19.1108C13.6382 17.7601 13.6764 16.4018 13.6305 15.0511C13.5465 12.6779 15.5103 11.1593 17.2372 10.9151C19.3614 10.6098 21.2717 11.7545 21.9824 13.7844C22.7694 16.005 21.4475 18.6377 19.2086 19.2787C18.9335 19.355 18.6355 19.4008 18.3452 19.4008C16.8246 19.4161 15.304 19.4085 13.7834 19.4085C13.7528 19.4008 13.7146 19.4008 13.6382 19.3932Z" fill="#FE5B2C"/>
</svg>

<svg width="190" height="40" viewBox="0 0 190 40" fill="none" xmlns="http://www.w3.org/2000/svg" role="img" aria-label="HealthStrat">
  <g fill="#FE5B2C">
    <path d="M7.2 8c.5.12 1.03.19 1.52.37 1.74.66 2.99 1.82 3.53 3.64.11.38.16.78.16 1.17.02 2.03.01 4.05.01 6.08v.15H6.44c-1.8.03-3.19-.76-4.24-2.15C1.27 16.03.88 14.65 1.03 13.11 1.28 10.57 3.28 8.47 5.81 8.08L6.25 8h.95Z"/>
    <path d="M24 26.22c-.11.48-.19.97-.36 1.43-.82 2.27-3.26 3.67-5.65 3.26-1.7-.3-3.02-1.18-3.86-2.7-.36-.64-.5-1.33-.5-2.05v-5.29c0-.18.05-.24.24-.24 1.76.01 3.53-.01 5.3.01 1.83 0 3.13.92 4.06 2.42.4.65.64 1.37.72 2.13.01.05.04.09.05.14v.89Z"/>
    <path d="M12.42 20.64v5.35c.03 1.86-.83 3.23-2.37 4.17-1.65 1.01-3.4 1.11-5.14.24-1.56-.79-2.52-2.07-2.77-3.8-.31-2.19.48-3.96 2.3-5.25.71-.5 1.52-.73 2.38-.73h5.46c.03.01.06.02.14.02Z"/>
    <path d="M13.64 19.39v-4.34c-.09-2.37 1.87-3.89 3.6-4.13 2.12-.31 4.03.84 4.74 2.86.79 2.22-.53 4.86-2.77 5.5-.28.08-.58.12-.87.12H13.78c-.03 0-.07 0-.14-.01Z"/>
  </g>
  <text x="34" y="27.5" fill="#18333B" font-family="Georgia, 'Times New Roman', serif" font-size="25" font-weight="700">HealthStrat</text>
</svg>
